cached_logos/gravity.svg

<?xml version="1.0" encoding="UTF-8"?>
<svg   viewBox="-2.8400000000000034 -1.0399999999999991 147.68 54.08" version="1.1" xmlns="http://www.w3.org/2000/svg" xmlns:xlink="http://www.w3.org/1999/xlink">
    <!-- Generator: Sketch 52.1 (67048) - http://www.bohemiancoding.com/sketch -->
    <title>logo</title>
    <desc>Created with Sketch.</desc>
    <g id="Page-1" stroke="none" stroke-width="1" fill="none" fill-rule="evenodd">
        <g id="logo">
            <rect id="Rectangle" fill-opacity="0" fill="#FFFFFF" fill-rule="nonzero" x="0" y="0" width="144" height="56"></rect>
            <path d="M32.7420543,23.0831872 L29.4086725,20.0957331 C29.5277572,19.4277897 29.5616755,18.7071477 29.5616755,18.004157 C29.5616755,17.3014223 29.5277572,16.5807801 29.4086725,15.9128367 L32.7420543,12.9251267 C32.9802236,12.7493791 33.0656378,12.4157911 32.9463055,12.1343902 C32.2657153,9.97297554 31.0924462,7.91670247 29.6465944,6.21218053 C29.4428382,5.96608266 29.1536678,5.87808091 28.8813327,6.00138567 L24.6804401,7.51250845 C23.6430908,6.63377021 22.4693265,5.93103543 21.2108908,5.4211882 L20.3777931,0.922611198 C20.326792,0.641466125 20.0886226,0.377716743 19.7992046,0.342669541 C17.6222568,-0.11422318 15.3774729,-0.11422318 13.2005251,0.342669541 C12.9113547,0.377716743 12.6731853,0.641466125 12.6221844,0.922611198 L11.788839,5.421444 C10.5304032,5.93129126 9.32272081,6.63402604 8.31928973,7.51276428 L4.11839698,6.00164148 C3.84630947,5.87859254 3.5571391,5.96633846 3.35288776,6.21243633 C1.90728352,7.91695829 0.733766807,9.97323137 0.0534242041,12.134646 C-0.0656605092,12.4160469 0.0195061049,12.7496349 0.257427953,12.9253825 L3.59080962,15.9130926 C3.47197248,16.5807801 3.43780681,17.301678 3.43780681,18.0044128 C3.43780681,18.7074034 3.47172491,19.4277897 3.59080962,20.0959888 L0.257675532,23.0831872 C0.0197536824,23.258935 -0.0654129317,23.5927787 0.0536717814,23.8739237 C0.734014384,26.0355943 1.90753109,28.0918674 3.35313535,29.7963892 C3.55738667,30.0424873 3.84655704,30.130233 4.11864457,30.0071842 L8.31953731,28.4958055 C9.32296838,29.3747996 10.5306508,30.0775344 11.7890865,30.5871259 L12.6224319,35.0862145 C12.6734329,35.3673595 12.9113547,35.631109 13.2007727,35.6661562 C14.2891228,35.8769509 15.3774729,36 16.5002362,36 C17.6225044,36 18.7113497,35.8772068 19.7994522,35.6661562 C20.0888701,35.631109 20.3270396,35.3673595 20.3780405,35.0862145 L21.211386,30.5871259 C22.4698216,30.0775344 23.6433385,29.3747996 24.6809353,28.4958055 L28.8818279,30.0071842 C29.1541629,30.1299774 29.4433334,30.0424873 29.6470896,29.7963892 C31.0929414,28.0918674 32.2662105,26.0355943 32.9468007,23.8739237 C33.0656378,23.5927787 32.9802236,23.258935 32.7420543,23.0831872 L32.7420543,23.0831872 L32.7420543,23.0831872 L32.7420543,23.0831872 Z M16.75,29.5 C10.5367583,29.5 5.5,24.3512355 5.5,18 C5.5,11.6487645 10.5367583,6.5 16.75,6.5 C22.9632417,6.5 28,11.6487645 28,18 C28,24.3512355 22.9632417,29.5 16.75,29.5 Z M22.8129094,18.0632651 C22.9162602,18.0632651 22.9998568,18.1468628 23,18.2500715 C23,21.6961855 20.1963606,24.5 16.7502863,24.5 C13.3037825,24.5 10.5,21.6963285 10.5,18.2500715 C10.5,14.8038146 13.3037825,12 16.7502863,12 C18.0224165,12 19.2473089,12.3807702 20.2922678,13.1009413 C20.3770098,13.1596315 20.3984816,13.2757235 20.3400784,13.3607526 L18.2921018,16.3379178 C18.2354164,16.4205135 18.1236201,16.4435601 18.0385919,16.3901664 C17.6823038,16.1659986 17.2719069,16.0476163 16.8519193,16.0476163 C15.6182951,16.0476163 14.6145619,17.051361 14.6145619,18.2852856 C14.6145619,19.5190671 15.6181519,20.5228118 16.8519193,20.5228118 C17.4683019,20.5228118 18.0570577,20.2644321 18.4771885,19.8211067 C18.4790493,19.8192459 18.4809102,19.8173848 18.482771,19.8152377 C18.4842025,19.8138062 18.4857771,19.8123747 18.4872085,19.8108001 L18.4869222,19.8102276 C18.5131179,19.7805962 18.5294364,19.7422328 18.5294364,19.6995751 C18.5294364,19.6572037 18.5131179,19.618554 18.4869222,19.5889227 L18.4873518,19.5883502 L17.5405902,18.3644458 C17.4969309,18.308046 17.489058,18.2316057 17.5204068,18.1677622 C17.5518987,18.1037757 17.6170297,18.0632651 17.688316,18.0632651 L22.8129094,18.0632651 Z M16.75,28.5 C22.1347384,28.5 26.5,23.9109586 26.5,18.25 C26.5,12.5890414 22.1347384,8 16.75,8 C11.3652616,8 7,12.5890414 7,18.25 C7,23.9109586 11.3652616,28.5 16.75,28.5 Z" id="Combined-Shape" fill="#1A237E" fill-rule="nonzero"></path>
            <path d="M58.7794362,12.6153846 L54.5887231,12.6153846 C54.5467107,11.4468806 54.0950845,10.4647476 53.2338308,9.66895604 C52.3725772,8.87316452 51.1857455,8.47527473 49.6733002,8.47527473 C47.9297867,8.47527473 46.6116684,8.98900585 45.7189055,10.0164835 C44.8261426,11.0439612 44.3797678,12.4642766 44.3797678,14.2774725 L44.3797678,17.6016484 C44.3797678,19.4752841 44.8103882,20.9459654 45.6716418,22.0137363 C46.5328954,23.0815072 47.8772711,23.6153846 49.7048093,23.6153846 C51.259267,23.6153846 52.4776075,23.2124582 53.3598673,22.4065934 C54.2421271,21.6007286 54.6832504,20.5934126 54.6832504,19.3846154 L54.6832504,19.0824176 L49.7363184,19.0824176 L49.7363184,15.6373626 L59,15.6373626 L59,18.3873626 C59,20.9459835 58.1440108,23.0210543 56.4320066,24.6126374 C54.7200025,26.2042204 52.4566199,27 49.641791,27 C46.5118694,27 44.1224516,26.113562 42.473466,24.3406593 C40.8244804,22.5677567 40,20.2912227 40,17.510989 L40,14.4285714 C40,11.5476046 40.8454863,9.25596089 42.5364842,7.55357143 C44.2274822,5.85118196 46.5643853,5 49.5472637,5 C52.3410864,5 54.5624572,5.71015773 56.2114428,7.13049451 C57.8604284,8.55083128 58.7164176,10.3791097 58.7794362,12.6153846 Z M63,27 L63,11.1221374 L66.8571429,11.1221374 L66.8571429,14.2061069 C67.3156169,12.0686916 68.8704186,11 71.5215947,11 L72,11 L72,15.1221374 L71.1627907,15.1221374 C68.43188,15.1221374 67.0664452,16.6386617 67.0664452,19.6717557 L67.0664452,27 L63,27 Z M79.1820084,27 C77.3200744,27 75.8242734,26.5468795 74.6945607,25.640625 C73.5648479,24.7343705 73,23.5000078 73,21.9375 C73,20.2291581 73.5909983,18.9427127 74.7730126,18.078125 C75.9550268,17.2135373 77.5606593,16.78125 79.5899582,16.78125 C81.2426861,16.78125 82.6234254,17.2395788 83.7322176,18.15625 L83.7322176,15.9375 C83.7322176,15.1666628 83.475944,14.5364608 82.9633891,14.046875 C82.4508343,13.5572892 81.7656947,13.3125 80.9079498,13.3125 C79.5481104,13.3125 78.6066972,13.8229116 78.083682,14.84375 L74.1297071,14.84375 C74.5899605,13.2812422 75.4267722,12.0833375 76.6401674,11.25 C77.8535626,10.4166625 79.3493635,10 81.1276151,10 C83.1778345,10 84.8357677,10.5729109 86.1014644,11.71875 C87.3671611,12.8645891 88,14.3749906 88,16.25 L88,26.625 L83.8891213,26.625 L83.8891213,25.125 C83.5125504,25.6666694 82.8744815,26.1145816 81.9748954,26.46875 C81.0753093,26.8229184 80.1443563,27 79.1820084,27 Z M80.3333333,24 C81.3333383,24 82.1944408,23.755558 82.9166667,23.2666667 C83.6388925,22.7777753 84,22.1666703 84,21.4333333 C84,20.677774 83.6722255,20.0833355 83.0166667,19.65 C82.3611078,19.2166645 81.5111163,19 80.4666667,19 C79.3777723,19 78.5277808,19.211109 77.9166667,19.6333333 C77.3055525,20.0555577 77,20.6666627 77,21.4666667 C77,22.2444483 77.311108,22.8611088 77.9333333,23.3166667 C78.5555587,23.7722245 79.3555507,24 80.3333333,24 Z M106,11 L100.647177,27 L96.3528226,27 L91,11 L95.1129032,11 L98.5,22.7230769 L101.887097,11 L106,11 Z M108,27 L108,11 L112,11 L112,27 L108,27 Z M108.696203,8.30379747 C108.232065,7.81856297 108,7.21730316 108,6.5 C108,5.78269684 108.237339,5.18671123 108.712025,4.71202532 C109.186711,4.2373394 109.782697,4 110.5,4 C111.217303,4 111.813289,4.2373394 112.287975,4.71202532 C112.762661,5.18671123 113,5.78269684 113,6.5 C113,7.21730316 112.762661,7.81328877 112.287975,8.28797468 C111.813289,8.7626606 111.217303,9 110.5,9 C109.782697,9 109.181437,8.76793481 108.696203,8.30379747 Z M122.863354,27 C121.351959,27 120.213254,26.5929044 119.447205,25.7787009 C118.681156,24.9644974 118.298137,23.806654 118.298137,22.305136 L118.298137,13.9939577 L116,13.9939577 L116,10.5045317 L118.298137,10.5045317 L118.298137,6 L122.552795,6 L122.552795,10.5045317 L126,10.5045317 L126,13.9939577 L122.552795,13.9939577 L122.552795,21.9879154 C122.552795,22.5377671 122.666666,22.9290019 122.89441,23.1616314 C123.122154,23.394261 123.515525,23.510574 124.074534,23.510574 L125.782609,23.510574 L125.782609,27 L122.863354,27 Z M135.03681,32 L130.92638,32 L132.521472,26.6743516 L127,11 L131.171779,11 L134.607362,22.2867435 L137.858896,11 L142,11 L135.03681,32 Z" id="Gravity" fill="#1A237E"></path>
            <path d="M12.468,43.3 L12.468,51 L10.994,51 L10.994,46.27 L9.553,49.13 L8.189,49.13 L6.748,46.27 L6.748,51 L5.274,51 L5.274,43.3 L6.693,43.3 L8.871,47.7 L11.049,43.3 L12.468,43.3 Z M17.891,43.3 L20.652,51 L19.123,51 L18.606,49.383 L15.614,49.383 L15.097,51 L13.568,51 L16.329,43.3 L17.891,43.3 Z M17.11,44.686 L15.999,48.162 L18.21,48.162 L17.11,44.686 Z M21.752,43.3 L24.876,43.3 C25.8806717,43.3 26.6579972,43.5786639 27.208,44.136 C27.7580027,44.6933361 28.033,45.4229955 28.033,46.325 L28.033,47.975 C28.033,48.8770045 27.7580027,49.6066639 27.208,50.164 C26.6579972,50.7213361 25.8806717,51 24.876,51 L21.752,51 L21.752,43.3 Z M26.504,47.986 L26.504,46.314 C26.504,45.7493305 26.3426683,45.3148349 26.02,45.0105 C25.6973317,44.7061651 25.2280031,44.554 24.612,44.554 L23.281,44.554 L23.281,49.746 L24.612,49.746 C25.2280031,49.746 25.6973317,49.5938349 26.02,49.2895 C26.3426683,48.9851651 26.504,48.5506695 26.504,47.986 Z M29.485,51 L29.485,43.3 L34.875,43.3 L34.875,44.576 L31.025,44.576 L31.025,46.457 L34.545,46.457 L34.545,47.744 L31.025,47.744 L31.025,49.724 L34.886,49.724 L34.886,51 L29.485,51 Z M38.703,51 L38.703,43.3 L42.157,43.3 C42.8243367,43.3 43.3578313,43.4796649 43.7575,43.839 C44.1571687,44.1983351 44.357,44.6676638 44.357,45.247 C44.357,46.0610041 44.0343366,46.6513315 43.389,47.018 C43.8070021,47.1060004 44.149832,47.3058318 44.4175,47.6175 C44.685168,47.9291682 44.819,48.3343308 44.819,48.833 C44.819,49.4783366 44.5770024,50.0008313 44.093,50.4005 C43.6089976,50.8001687 42.9820038,51 42.212,51 L38.703,51 Z M40.199,49.79 L42.135,49.79 C42.5016685,49.79 42.783999,49.6965009 42.982,49.5095 C43.180001,49.3224991 43.279,49.0640017 43.279,48.734 C43.279,48.4113317 43.1763344,48.1565009 42.971,47.9695 C42.7656656,47.7824991 42.4833351,47.689 42.124,47.689 L40.199,47.689 L40.199,49.79 Z M40.199,46.49 L41.816,46.49 C42.1313349,46.49 42.3769991,46.3965009 42.553,46.2095 C42.7290009,46.0224991 42.817,45.7750015 42.817,45.467 C42.817,45.1736652 42.7271676,44.9408342 42.5475,44.7685 C42.3678324,44.5961658 42.1203349,44.51 41.805,44.51 L40.199,44.51 L40.199,46.49 Z M48.977,48.228 L48.977,51 L47.437,51 L47.437,48.228 L44.797,43.3 L46.469,43.3 L48.207,46.732 L49.945,43.3 L51.617,43.3 L48.977,48.228 Z M61.297,45.918 L59.834,45.918 C59.8193333,45.4926645 59.6616682,45.1351681 59.361,44.8455 C59.0603318,44.5558319 58.6460026,44.411 58.118,44.411 C57.5093303,44.411 57.0491682,44.5979981 56.7375,44.972 C56.4258318,45.3460019 56.27,45.8629967 56.27,46.523 L56.27,47.733 C56.27,48.4150034 56.4203318,48.9503314 56.721,49.339 C57.0216682,49.7276686 57.4909968,49.922 58.129,49.922 C58.6716694,49.922 59.0969985,49.7753348 59.405,49.482 C59.7130015,49.1886652 59.867,48.8220022 59.867,48.382 L59.867,48.272 L58.14,48.272 L58.14,47.018 L61.374,47.018 L61.374,48.019 C61.374,48.950338 61.0751697,49.7056638 60.4775,50.285 C59.8798303,50.8643362 59.0896716,51.154 58.107,51.154 C57.0143279,51.154 56.1801695,50.8313366 55.6045,50.186 C55.0288305,49.5406634 54.741,48.7120051 54.741,47.7 L54.741,46.578 C54.741,45.5293281 55.0361637,44.6951698 55.6265,44.0755 C56.2168363,43.4558302 57.0326615,43.146 58.074,43.146 C59.0493382,43.146 59.8248305,43.4044974 60.4005,43.9215 C60.9761695,44.4385026 61.2749999,45.1039959 61.297,45.918 Z M67.402,51 L65.994,48.536 L64.377,48.536 L64.377,51 L62.837,51 L62.837,43.3 L66.313,43.3 C67.1930044,43.3 67.8768309,43.5419976 68.3645,44.026 C68.8521691,44.5100024 69.096,45.1406628 69.096,45.918 C69.096,46.4606694 68.962168,46.9409979 68.6945,47.359 C68.426832,47.7770021 68.0546691,48.0886656 67.578,48.294 L69.184,51 L67.402,51 Z M64.377,47.293 L66.126,47.293 C66.5880023,47.293 66.9418321,47.1665013 67.1875,46.9135 C67.4331679,46.6604987 67.556,46.3250021 67.556,45.907 C67.556,45.4889979 67.4331679,45.1590012 67.1875,44.917 C66.9418321,44.6749988 66.5880023,44.554 66.126,44.554 L64.377,44.554 L64.377,47.293 Z M74.354,43.3 L77.115,51 L75.586,51 L75.069,49.383 L72.077,49.383 L71.56,51 L70.031,51 L72.792,43.3 L74.354,43.3 Z M73.573,44.686 L72.462,48.162 L74.673,48.162 L73.573,44.686 Z M83.462,43.3 L80.91,51 L79.172,51 L76.62,43.3 L78.193,43.3 L80.041,49.317 L81.889,43.3 L83.462,43.3 Z M84.606,51 L84.606,43.3 L86.146,43.3 L86.146,51 L84.606,51 Z M89.512,51 L89.512,44.576 L87.334,44.576 L87.334,43.3 L93.23,43.3 L93.23,44.576 L91.052,44.576 L91.052,51 L89.512,51 Z M97.377,43.3 L100.138,51 L98.609,51 L98.092,49.383 L95.1,49.383 L94.583,51 L93.054,51 L95.815,43.3 L97.377,43.3 Z M96.596,44.686 L95.485,48.162 L97.696,48.162 L96.596,44.686 Z M102.14,51 L102.14,44.576 L99.962,44.576 L99.962,43.3 L105.858,43.3 L105.858,44.576 L103.68,44.576 L103.68,51 L102.14,51 Z M107.046,51 L107.046,43.3 L108.586,43.3 L108.586,51 L107.046,51 Z M116.968,46.589 L116.968,47.711 C116.968,48.7303384 116.671003,49.5589968 116.077,50.197 C115.482997,50.8350032 114.636005,51.154 113.536,51.154 C112.443328,51.154 111.59817,50.8350032 111.0005,50.197 C110.40283,49.5589968 110.104,48.7303384 110.104,47.711 L110.104,46.589 C110.104,45.5696616 110.40283,44.7410032 111.0005,44.103 C111.59817,43.4649968 112.443328,43.146 113.536,43.146 C114.636005,43.146 115.482997,43.4649968 116.077,44.103 C116.671003,44.7410032 116.968,45.5696616 116.968,46.589 Z M112.117,49.317 C112.439668,49.6910019 112.912664,49.878 113.536,49.878 C114.159336,49.878 114.630498,49.6891686 114.9495,49.3115 C115.268502,48.9338314 115.428,48.4260032 115.428,47.788 L115.428,46.512 C115.428,45.8739968 115.268502,45.3661686 114.9495,44.9885 C114.630498,44.6108314 114.159336,44.422 113.536,44.422 C112.912664,44.422 112.441502,44.6108314 112.1225,44.9885 C111.803498,45.3661686 111.644,45.8739968 111.644,46.512 L111.644,47.788 C111.644,48.4260032 111.801665,48.9356648 112.117,49.317 Z M118.431,51 L118.431,43.3 L119.894,43.3 L123.249,48.426 L123.249,43.3 L124.756,43.3 L124.756,51 L123.293,51 L119.938,45.874 L119.938,51 L118.431,51 Z M130.179,43.3 L132.94,51 L131.411,51 L130.894,49.383 L127.902,49.383 L127.385,51 L125.856,51 L128.617,43.3 L130.179,43.3 Z M129.398,44.686 L128.287,48.162 L130.498,48.162 L129.398,44.686 Z M134.04,51 L134.04,43.3 L135.58,43.3 L135.58,49.724 L139.122,49.724 L139.122,51 L134.04,51 Z" id="MADE-BY-GRAVITATIONA" fill="#475962"></path>
        </g>
    </g>
</svg>

<svg xmlns="http://www.w3.org/2000/svg" role="img" viewBox="-2.97 -2.84 147.68 56.80"><title>Gravity logo</title><g fill="none" fill-rule="evenodd"><g><path fill="#FFF" fill-opacity="0" fill-rule="nonzero" d="M0 0h144v56H0z"/><path fill="#1A237E" fill-rule="nonzero" d="M32.742 23.083l-3.333-2.987c.119-.668.153-1.389.153-2.092 0-.703-.034-1.423-.153-2.091l3.333-2.988a.667.667 0 0 0 .204-.79c-.68-2.162-1.854-4.218-3.3-5.923-.203-.246-.492-.334-.765-.21l-4.2 1.51a12.8 12.8 0 0 0-3.47-2.09l-.833-4.5c-.051-.28-.29-.544-.579-.58a16.055 16.055 0 0 0-6.598 0c-.29.036-.528.3-.579.58l-.833 4.5c-1.259.51-2.466 1.212-3.47 2.09l-4.2-1.51c-.273-.123-.562-.036-.766.21-1.446 1.705-2.62 3.761-3.3 5.923a.667.667 0 0 0 .204.79l3.334 2.988c-.119.668-.153 1.389-.153 2.091 0 .703.034 1.424.153 2.092L.258 23.083a.667.667 0 0 0-.204.79c.68 2.163 1.854 4.219 3.3 5.923.203.246.493.334.765.211l4.2-1.511c1.004.879 2.212 1.582 3.47 2.091l.833 4.5c.051.28.29.544.579.58 1.088.21 2.176.333 3.3.333 1.122 0 2.21-.123 3.298-.334.29-.035.528-.299.579-.58l.833-4.499a12.792 12.792 0 0 0 3.47-2.091l4.2 1.511c.273.123.562.035.766-.21 1.446-1.705 2.62-3.761 3.3-5.923a.667.667 0 0 0-.205-.79zM16.75 29.5C10.537 29.5 5.5 24.351 5.5 18S10.537 6.5 16.75 6.5 28 11.649 28 18s-5.037 11.5-11.25 11.5zm6.063-11.437c.103 0 .187.084.187.187a6.257 6.257 0 0 1-6.25 6.25 6.257 6.257 0 0 1-6.25-6.25A6.257 6.257 0 0 1 16.75 12c1.272 0 2.497.38 3.542 1.1a.187.187 0 0 1 .048.26l-2.048 2.978a.187.187 0 0 1-.253.052 2.226 2.226 0 0 0-1.187-.342 2.24 2.24 0 0 0-2.237 2.237 2.24 2.24 0 0 0 2.237 2.238 2.246 2.246 0 0 0 1.63-.708l.005-.004a.166.166 0 0 0 0-.222l-.946-1.225a.187.187 0 0 1 .147-.3h5.125zM16.75 28.5c5.385 0 9.75-4.589 9.75-10.25S22.135 8 16.75 8 7 12.589 7 18.25s4.365 10.25 9.75 10.25z"/><path fill="#1A237E" d="M58.78 12.615h-4.191c-.042-1.168-.494-2.15-1.355-2.946-.861-.796-2.048-1.194-3.56-1.194-1.744 0-3.062.514-3.955 1.541-.893 1.028-1.34 2.448-1.34 4.261v3.325c0 1.873.431 3.344 1.293 4.412.86 1.068 2.205 1.601 4.033 1.601 1.554 0 2.773-.403 3.655-1.208.882-.806 1.323-1.814 1.323-3.022v-.303h-4.947v-3.445H59v2.75c0 2.559-.856 4.634-2.568 6.226C54.72 26.204 52.457 27 49.642 27c-3.13 0-5.52-.886-7.169-2.66C40.824 22.569 40 20.292 40 17.512V14.43c0-2.881.845-5.173 2.536-6.875C44.227 5.85 46.564 5 49.547 5c2.794 0 5.015.71 6.664 2.13 1.65 1.42 2.505 3.25 2.568 5.485zM63 27V11.122h3.857v3.084C67.316 12.07 68.87 11 71.522 11H72v4.122h-.837c-2.731 0-4.097 1.517-4.097 4.55V27H63zm16.182 0c-1.862 0-3.358-.453-4.487-1.36C73.565 24.735 73 23.5 73 21.938c0-1.708.591-2.994 1.773-3.859 1.182-.864 2.788-1.297 4.817-1.297 1.653 0 3.033.459 4.142 1.375v-2.218c0-.771-.256-1.402-.769-1.891-.512-.49-1.197-.735-2.055-.735-1.36 0-2.301.51-2.824 1.532H74.13c.46-1.563 1.297-2.76 2.51-3.594 1.214-.833 2.71-1.25 4.488-1.25 2.05 0 3.708.573 4.973 1.719C87.367 12.865 88 14.375 88 16.25v10.375h-4.11v-1.5c-.377.542-1.016.99-1.915 1.344-.9.354-1.83.531-2.793.531zm1.151-3c1 0 1.861-.244 2.584-.733.722-.49 1.083-1.1 1.083-1.834 0-.755-.328-1.35-.983-1.783-.656-.433-1.506-.65-2.55-.65-1.09 0-1.94.211-2.55.633-.611.423-.917 1.034-.917 1.834 0 .777.311 1.394.933 1.85.623.455 1.423.683 2.4.683zM106 11l-5.353 16h-4.294L91 11h4.113L98.5 22.723 101.887 11H106zm2 16V11h4v16h-4zm.696-18.696C108.232 7.819 108 7.217 108 6.5c0-.717.237-1.313.712-1.788.475-.475 1.07-.712 1.788-.712.717 0 1.313.237 1.788.712.475.475.712 1.07.712 1.788 0 .717-.237 1.313-.712 1.788-.475.475-1.07.712-1.788.712-.717 0-1.319-.232-1.804-.696zM122.863 27c-1.511 0-2.65-.407-3.416-1.221-.766-.815-1.149-1.972-1.149-3.474v-8.311H116v-3.49h2.298V6h4.255v4.505H126v3.489h-3.447v7.994c0 .55.114.941.341 1.174.228.232.622.349 1.18.349h1.709V27h-2.92zm12.174 5h-4.11l1.594-5.326L127 11h4.172l3.435 11.287L137.86 11H142l-6.963 21z"/><path fill="#475962" d="M12.468 43.3V51h-1.474v-4.73l-1.441 2.86H8.189l-1.441-2.86V51H5.274v-7.7h1.419l2.178 4.4 2.178-4.4h1.419zm5.423 0l2.761 7.7h-1.529l-.517-1.617h-2.992L15.097 51h-1.529l2.761-7.7h1.562zm-.781 1.386l-1.111 3.476h2.211l-1.1-3.476zm4.642-1.386h3.124c1.005 0 1.782.279 2.332.836.55.557.825 1.287.825 2.189v1.65c0 .902-.275 1.632-.825 2.189-.55.557-1.327.836-2.332.836h-3.124v-7.7zm4.752 4.686v-1.672c0-.565-.161-1-.484-1.303-.323-.305-.792-.457-1.408-.457h-1.331v5.192h1.331c.616 0 1.085-.152 1.408-.457.323-.304.484-.738.484-1.303zM29.485 51v-7.7h5.39v1.276h-3.85v1.881h3.52v1.287h-3.52v1.98h3.861V51h-5.401zm9.218 0v-7.7h3.454c.667 0 1.2.18 1.6.539.4.36.6.829.6 1.408 0 .814-.323 1.404-.968 1.771.418.088.76.288 1.028.6.268.311.402.716.402 1.215 0 .645-.242 1.168-.726 1.568-.484.4-1.111.599-1.881.599h-3.509zm1.496-1.21h1.936c.367 0 .649-.093.847-.28.198-.188.297-.446.297-.776 0-.323-.103-.577-.308-.765-.205-.187-.488-.28-.847-.28h-1.925v2.101zm0-3.3h1.617c.315 0 .561-.093.737-.28.176-.188.264-.435.264-.743 0-.293-.09-.526-.27-.698-.18-.173-.427-.259-.742-.259h-1.606v1.98zm8.778 1.738V51h-1.54v-2.772l-2.64-4.928h1.672l1.738 3.432 1.738-3.432h1.672l-2.64 4.928zm12.32-2.31h-1.463a1.507 1.507 0 0 0-.473-1.072c-.3-.29-.715-.435-1.243-.435-.609 0-1.069.187-1.38.561-.312.374-.468.891-.468 1.551v1.21c0 .682.15 1.217.451 1.606.3.389.77.583 1.408.583.543 0 .968-.147 1.276-.44.308-.293.462-.66.462-1.1v-.11H58.14v-1.254h3.234v1.001c0 .931-.299 1.687-.897 2.266-.597.58-1.387.869-2.37.869-1.093 0-1.927-.323-2.502-.968-.576-.645-.864-1.474-.864-2.486v-1.122c0-1.049.295-1.883.886-2.503.59-.62 1.406-.929 2.447-.929.975 0 1.75.258 2.327.776.575.517.874 1.182.896 1.996zM67.402 51l-1.408-2.464h-1.617V51h-1.54v-7.7h3.476c.88 0 1.564.242 2.052.726.487.484.731 1.115.731 1.892 0 .543-.134 1.023-.401 1.441-.268.418-.64.73-1.117.935L69.184 51h-1.782zm-3.025-3.707h1.749c.462 0 .816-.126 1.061-.38.246-.253.369-.588.369-1.006 0-.418-.123-.748-.368-.99-.246-.242-.6-.363-1.062-.363h-1.749v2.739zm9.977-3.993l2.761 7.7h-1.529l-.517-1.617h-2.992L71.56 51h-1.529l2.761-7.7h1.562zm-.781 1.386l-1.111 3.476h2.211l-1.1-3.476zm9.889-1.386L80.91 51h-1.738l-2.552-7.7h1.573l1.848 6.017 1.848-6.017h1.573zm1.144 7.7v-7.7h1.54V51h-1.54zm4.906 0v-6.424h-2.178V43.3h5.896v1.276h-2.178V51h-1.54zm7.865-7.7l2.761 7.7h-1.529l-.517-1.617H95.1L94.583 51h-1.529l2.761-7.7h1.562zm-.781 1.386l-1.111 3.476h2.211l-1.1-3.476zM102.14 51v-6.424h-2.178V43.3h5.896v1.276h-2.178V51h-1.54zm4.906 0v-7.7h1.54V51h-1.54zm9.922-4.411v1.122c0 1.02-.297 1.848-.891 2.486-.594.638-1.441.957-2.541.957-1.093 0-1.938-.319-2.535-.957-.598-.638-.897-1.467-.897-2.486v-1.122c0-1.02.299-1.848.897-2.486.597-.638 1.442-.957 2.535-.957 1.1 0 1.947.319 2.541.957.594.638.891 1.467.891 2.486zm-4.851 2.728c.323.374.796.561 1.419.561s1.094-.189 1.413-.566c.32-.378.479-.886.479-1.524v-1.276c0-.638-.16-1.146-.478-1.523-.32-.378-.79-.567-1.414-.567-.623 0-1.094.189-1.413.567-.32.377-.479.885-.479 1.523v1.276c0 .638.158 1.148.473 1.529zM118.431 51v-7.7h1.463l3.355 5.126V43.3h1.507V51h-1.463l-3.355-5.126V51h-1.507zm11.748-7.7l2.761 7.7h-1.529l-.517-1.617h-2.992L127.385 51h-1.529l2.761-7.7h1.562zm-.781 1.386l-1.111 3.476h2.211l-1.1-3.476zM134.04 51v-7.7h1.54v6.424h3.542V51h-5.082z"/></g></g></svg>
